!!!!SEGMENT: pl-kk--kk-i-3--051-003_anonim--quintis-ferija-agnus-dei.krn
!!!cenid: 15xx:707
!!!COM: Anonim
!!!COM-rismid: pe30004985
!!!CDT:
!!!CNT:
!!!OPR: Quintis ferija
!!!OTL: Agnus Dei
!!!OMV: 003
!!!PDT:
!!!AGN:
!!!SMS-siglum: PL-Kk
!!!SMS-shelfmark: Kk.I.3
!!!SMS-shelfwork: 051-003 M
!!!SMS-variant:
!!!SMS-altvar:
!!!NIFC-rismid: 1001145548
!!!URL-scan: http://repozytorium.nifc.pl/skany/pl-kk-nut--i-3
!!!ONB-nifc: UWAGA: Discantus (s. 139v-140v, skan 0142-0143), Tenor (s. 104v-105r, skan 0277), Bassus (s. 134r-135r, skan 0437-0438). Części: 1. Sanctus, 2. Benedictus, 3. Agnus Dei
!!!AIN: 1 alto 1 bass 1 tenor
!!!key: d
**kern	**text	**kern	**text	**text	**kern	**text
*part3	*part3	*part2	*part2	*part2	*part1	*part1
*staff3	*staff3	*staff2	*staff2	*staff2	*staff1	*staff1
*I"Bassus	*	*I"Tenor	*	*	*I"Discantus	*
*I'B	*	*I'T	*	*	*I'A	*
*Ibass	*	*Itenor	*	*	*Ialto	*
*ICvox	*	*ICvox	*	*	*ICvox	*
*clefF4	*	*clefC4	*	*	*clefC3	*
*k[b-]	*	*k[]	*	*	*k[b-]	*
*d:	*	*d:	*	*	*d:	*
*	*	*	*	*	*M2/1	*
*	*	*	*	*	*met(C|)	*
*all\right	*	*	*	*	*all\right	*
=1-	=1-	=1-	=1-	=1-	=1-	=1-
*	*	*lig	*	*	*	*
!	!	!LO:TX:t=P:problem=brak bemola B-	!	!	!	!
!LO:TX:t=P:problem=brak oznaczenia metrycznego	!	!LO:TX:t=P:problem=brak oznaczenia metrycznego	!	!	!	!
1D	A-	1D	A-	.	2d/	Ag-
*	*	*	*	*	*2\right	*
.	.	.	.	.	2.f\	.
2D/	.	1F	.	.	.	.
.	.	.	.	.	4e/	.
1D\	.	.	.	.	2d/	.
*	*	*Xlig	*	*	*	*
=2-	=2-	=2-	=2-	=2-	=2-	=2-
.	.	1E	.	.	1e	.
2C/	.	.	.	.	.	.
*	*	*lig	*	*	*	*
1.D	.	1D	.	.	2.f\	.
.	.	.	.	.	4e/	.
=3-	=3-	=3-	=3-	=3-	=3-	=3-
.	.	1F	.	.	2d/	.
*2\right	*	*	*	*	*	*
2.F\	.	.	.	.	1c	.
*	*	*Xlig	*	*	*	*
*	*	*lig	*	*	*	*
.	.	1D	.	.	.	.
4E/	.	.	.	.	.	.
2D/	.	.	.	.	2B-/	.
=4-	=4-	=4-	=4-	=4-	=4-	=4-
2E/	.	1C	.	.	0c	.
2C/	.	.	.	.	.	.
*	*	*Xlig	*	*	*	*
*	*	*lig	*	*	*	*
2AA/	.	1F	.	.	.	.
2A\	.	.	.	.	.	.
=5-	=5-	=5-	=5-	=5-	=5-	=5-
2G\	.	1G	.	.	1g	.
*custos:C	*	*	*	*	*	*
2E/	.	.	.	.	.	.
*	*	*Xlig	*	*	*	*
*	*	*lig	*	*	*	*
!LO:LB:g=original	!	!	!	!	!	!
2C/	.	1A	.	.	2e\	.
1D\	.	.	.	.	1f\	.
=6-	=6-	=6-	=6-	=6-	=6-	=6-
.	.	1B-y	.	.	.	.
*	*	*	*	*	*custos:e	*
2G\	.	.	.	.	2d/	.
*	*	*Xlig	*	*	*	*
*	*	*lig	*	*	*	*
!	!	!	!	!	!LO:LB:g=original	!
1C	.	1c	.	.	1e	.
=7-	=7-	=7-	=7-	=7-	=7-	=7-
2F\	.	1A	.	.	2c/	.
1D	.	.	.	.	1d	.
*	*	*Xlig	*	*	*	*
*	*	*lig	*	*	*	*
.	.	1F	.	.	.	.
2.F\	.	.	.	.	2c/	gnus
=8-	=8-	=8-	=8-	=8-	=8-	=8-
.	.	1D	.	.	2d/	.
4G\	.	.	.	.	.	.
1A	.	.	.	.	2f\	.
*	*	*Xlig	*	*	*	*
.	.	1E	-gnus	.	1g	.
2G\	.	.	.	.	.	.
=9-	=9-	=9-	=9-	=9-	=9-	=9-
0A	-gnus	0D	.	.	2.f\	.
.	.	.	.	.	4e\	.
.	.	.	.	.	2.d/	.
.	.	.	.	.	4c/	.
=10-	=10-	=10-	=10-	=10-	=10-	=10-
*	*	*custos:c	*	*	*	*
1G	de-	0d	de-	.	1B-	.
2F\	.	.	.	.	2A/	de-
*custos:C	*	*	*	*	*	*
2G\	.	.	.	.	2B-/	.
!LO:LB:g=original	!	!LO:LB:g=original	!	!	!	!
=11-	=11-	=11-	=11-	=11-	=11-	=11-
*	*	*	*	*	*custos:A	*
2C/	.	0c	.	.	2G/	.
!	!	!	!	!	!LO:LB:g=original	!
1F	.	.	.	.	1A	.
2E/	.	.	.	.	2G/	.
=12-	=12-	=12-	=12-	=12-	=12-	=12-
*	*	*lig	*	*	*	*
1F	.	1A	.	.	4A/	.
.	.	.	.	.	4B-/	.
.	.	.	.	.	4c/	.
.	.	.	.	.	4d/	.
2C/	.	1G	.	.	2e/	.
2BB-/	.	.	.	.	2d/	.
*	*	*Xlig	*	*	*	*
=13-	=13-	=13-	=13-	=13-	=13-	=13-
*	*	*lig	*	*	*	*
1AA	.	1A	.	.	1c	.
1D	.	1F	.	.	1f	.
*	*	*Xlig	*	*	*	*
=14-	=14-	=14-	=14-	=14-	=14-	=14-
2C/	.	1G	i	.	2e\	.
2BB-/	.	.	.	.	2d/	.
2.AA/	.	0A	.	.	2.c/	-i
4BB-/	.	.	.	.	4d/	.
=15-	=15-	=15-	=15-	=15-	=15-	=15-
*	*	*	*	*	*custos:f	*
2C/	.	.	.	.	2e\	.
!	!	!	!	!	!LO:LB:g=original	!
2.D/	.	.	.	.	1f	qui
*	*	*lig	*	*	*	*
.	.	1D	qui	.	.	.
*custos:F	*	*	*	*	*	*
4E/	.	.	.	.	.	.
!LO:PB:g=original	!	!	!	!	!	!
2F/	i	.	.	.	2d/	.
=16-	=16-	=16-	=16-	=16-	=16-	=16-
2FF/	qvi	1F	.	.	2c/	.
2BB-/	.	.	.	.	2d/	.
*	*	*Xlig	*	*	*	*
1C	.	1E	.	.	1e	.
=17-	=17-	=17-	=17-	=17-	=17-	=17-
*	*	*lig	*	*	*	*
2.D/	.	1D	.	.	2A/	.
.	.	.	.	.	1d	.
4C/	.	.	.	.	.	.
2BB-/	.	1F	.	.	.	.
2AA/	.	.	.	.	2c/	.
*	*	*Xlig	*	*	*	*
=18-	=18-	=18-	=18-	=18-	=18-	=18-
2GG/	tol-	1D	tol-	.	2d/	tol-
2AA/	.	.	.	.	1c	.
1GG	-lis	1D	.	.	.	.
.	.	.	.	.	2B-/	.
=19-	=19-	=19-	=19-	=19-	=19-	=19-
*	*	*	*	*	*M3/1	*
*	*	*	*	*	*met(3)	*
!LO:N:vis=1	!	!LO:N:vis=1	!	!	!	!
1.G	.	1.C	-lis	.	2.c/	-lis
.	.	.	.	.	4d/	.
*	*	*	*	*	*custos:d	*
.	.	.	.	.	2e/	.
*lig	*	*	*	*	*	*
!LO:N:vis=1	!	!LO:N:vis=1	!	!	!LO:LB:g=original	!
1.D	.	1.F	pec-	.	2.d\	pec-
.	.	.	.	.	4e\	.
.	.	.	.	.	2f\	.
=20-	=20-	=20-	=20-	=20-	=20-	=20-
!LO:N:vis=1	!	!LO:N:vis=1	!	!	!	!
1.E	.	1.G	-ca-	.	2.e\	-ca-
.	.	.	.	.	4f\	.
.	.	.	.	.	2g\	.
*Xlig	*	*	*	*	*	*
!	!	!LO:LB:g=original	!	!	!	!
=21-	=21-	=21-	=21-	=21-	=21-	=21-
*M3/1	*	*	*	*	*	*
*met(3)	*	*	*	*	*	*
*	*	*lig	*	*	*	*
!	!	!LO:N:vis=1	!	!	!	!
1D	lis	1.A	-ta	.	1f	-ta
*custos:G	*	*	*	*	*	*
2C/	.	.	.	.	2e\	.
!LO:LB:g=original	!	!	!	!	!	!
=22-	=22-	=22-	=22-	=22-	=22-	=22-
!	!	!LO:N:vis=1	!	!	!	!
2.G\	pec-	1.B-	.	.	1d	.
4F\	.	.	.	.	.	.
2G\	-ca-	.	.	.	2d/	.
*	*	*Xlig	*	*	*	*
=23-	=23-	=23-	=23-	=23-	=23-	=23-
*	*	*	*	*	*M2/1	*
*	*	*	*	*	*met(C|)	*
*	*	*lig	*	*	*	*
!	!	!LO:N:vis=1	!	!	!LO:N:vis=0	!
2.C/	.	1.c	mun-	.	0.c	.
4BB-/	.	.	.	.	.	.
4AA/	.	.	.	.	.	.
4GG/	.	.	.	.	.	.
=24-	=24-	=24-	=24-	=24-	=24-	=24-
!	!	!LO:N:vis=1	!	!	!	!
1FF	-ta	1.A	.	.	.	.
2F\	.	.	.	.	.	.
*	*	*Xlig	*	*	*	*
=25-	=25-	=25-	=25-	=25-	=25-	=25-
*M2/1	*	*	*	*	*	*
*met(C|)	*	*	*	*	*	*
0D	mun-	1F	.	.	2.d/	mun-
*	*	*	*	*	*custos:f	*
.	.	.	.	.	4e\	.
*	*	*lig	*	*	*	*
!	!	!	!	!	!LO:PB:g=original	!
.	.	1D	.	.	2f\	.
.	.	.	.	.	1d\	.
=26-	=26-	=26-	=26-	=26-	=26-	=26-
1AA	.	1E	.	.	.	.
.	.	.	.	.	2c/	.
*	*	*Xlig	*	*	*	*
2A\	-di	0D	di	.	1.d	.
2.A\	.	.	.	.	.	.
=27-	=27-	=27-	=27-	=27-	=27-	=27-
.	.	.	.	.	.	.
4G\	.	.	.	.	.	.
4F\	.	.	.	.	4c/	.
*custos:D	*	*	*	*	*	*
4E\	.	.	.	.	4B-/	-di
!LO:LB:g=original	!	!	!	!	!	!
0D	mi-	0d	Do-	mi-	0A	.
=28-	=28-	=28-	=28-	=28-	=28-	=28-
.	.	.	.	.	.	.
2AA/	-ſe-	0c	.	-ſe-	1.a	Mi-
1F\	.	.	.	.	.	.
=29-	=29-	=29-	=29-	=29-	=29-	=29-
.	.	.	.	.	.	.
2E/	-re-	.	.	.	2g\	-ſe-
*	*	*lig	*	*	*	*
2D/	-re	1A	na	-re-	2f\	.
1C/	.	.	.	.	1e\	.
=30-	=30-	=30-	=30-	=30-	=30-	=30-
.	.	1G	.	.	.	.
2BB-/	.	.	.	.	2d/	-re-
*	*	*Xlig	*	*	*	*
*	*	*lig	*	*	*	*
1AA	.	1A	no-	.	1c	.
=31-	=31-	=31-	=31-	=31-	=31-	=31-
1D	.	1F	.	.	2.f\	.
.	.	.	.	.	4e/	.
*	*	*Xlig	*	*	*	*
1GG	.	1G	.	.	1d	.
=32-	=32-	=32-	=32-	=32-	=32-	=32-
*	*	*	*	*	*custos:d	*
1.F	.	0A	-bis	-re	0c	-re
.	.	.	.	.	.	.
2G\	.	.	.	.	.	.
!	!	!	!	!	!LO:LB:g=original	!
=33-	=33-	=33-	=33-	=33-	=33-	=33-
*	*	*lig	*	*	*	*
1A	.	1D	pa-	no-	2d/	no-
.	.	.	.	.	2.f\	.
*lig	*	*	*	*	*	*
1D	no-	1F	.	.	.	.
.	.	.	.	.	4e/	.
.	.	.	.	.	1d\	.
*	*	*Xlig	*	*	*	*
!	!	!LO:LB:g=original	!	!	!	!
=34-	=34-	=34-	=34-	=34-	=34-	=34-
1AA	.	1E	.	.	.	.
.	.	.	.	.	2c/	.
*Xlig	*	*lig	*	*	*	*
1BB-	.	1D	.	.	1d	.
=35-	=35-	=35-	=35-	=35-	=35-	=35-
*custos:FF	*	*	*	*	*	*
2AA/	.	1F	.	.	2c/	.
!LO:LB:g=original	!	!	!	!	!	!
2FF/	.	.	.	.	1c	.
*	*	*Xlig	*	*	*	*
*	*	*lig	*	*	*	*
1GG	.	1D	.	.	.	.
.	.	.	.	.	2B-/	.
=36-	=36-	=36-	=36-	=36-	=36-	=36-
1G	.	1C	.	.	1c	.
*	*	*Xlig	*	*	*	*
*	*	*lig	*	*	*	*
2A\	.	1F	.	.	2c/	.
2D/	.	.	.	.	1d\	.
=37-	=37-	=37-	=37-	=37-	=37-	=37-
2G\	.	1G	.	.	.	.
1C/	.	.	.	.	1e	.
*	*	*Xlig	*	*	*	*
*	*	*lig	*	*	*	*
.	.	1A	.	.	.	.
1D\	.	.	.	.	1f\	.
=38-	=38-	=38-	=38-	=38-	=38-	=38-
.	.	1B-	.	.	.	.
1E\	.	.	.	.	1g	.
*	*	*Xlig	*	*	*	*
*	*	*lig	*	*	*	*
.	.	1c	.	.	.	.
*	*	*	*	*	*custos:f	*
1F\	.	.	.	.	1a\	.
=39-	=39-	=39-	=39-	=39-	=39-	=39-
.	.	1A	.	.	.	.
!	!	!	!	!	!LO:LB:g=original	!
1D\	.	.	.	.	1f	.
*	*	*Xlig	*	*	*	*
.	.	1F	.	.	.	.
1D\	.	.	.	.	1d\	.
=40-	=40-	=40-	=40-	=40-	=40-	=40-
*	*	*lig	*	*	*	*
.	.	1D	.	.	.	.
2BB-/	.	.	.	.	4c/	.
.	.	.	.	.	4B-/	.
1AA	.	1E	.	.	1c	.
*	*	*Xlig	*	*	*	*
=41-	=41-	=41-	=41-	=41-	=41-	=41-
*	*	*custos:d	*	*	*	*
1.BB-	.	[0Dl;	cem	-bis	[0dl;	-bis
.	.	.	.	.	.	.
*custos:FF	*	*	*	*	*	*
2GG/	.	.	.	.	.	.
!LO:LB:g=original	!	!	!	!	!	!
=42-	=42-	=42-	=42-	=42-	=42-	=42-
2FF/	.	0D]	.	.	0d]	.
2GG/	.	.	.	.	.	.
1Dl;;	-bis	.	.	.	.	.
!	!	!LO:PB:g=original	!	!	!	!
=43||	=43||	=43||	=43||	=43||	=43||	=43||
1.D	A-	0d	A-	.	2.d/	A-
.	.	.	.	.	4e\	.
.	.	.	.	.	2f\	.
2E/	.	.	.	.	2g\	.
=44-	=44-	=44-	=44-	=44-	=44-	=44-
1F	.	0c	.	.	1a	.
1C	.	.	.	.	2g\	.
*	*	*	*	*	*custos:f	*
.	.	.	.	.	1g\	.
=45-	=45-	=45-	=45-	=45-	=45-	=45-
*	*	*lig	*	*	*	*
1D	.	1A	.	.	.	.
!	!	!	!	!	!LO:LB:g=original	!
.	.	.	.	.	2f\	.
2E/	.	1G	.	.	2g\	.
1C/	.	.	.	.	1e\	.
*	*	*Xlig	*	*	*	*
=46-	=46-	=46-	=46-	=46-	=46-	=46-
.	.	1A	.	.	.	.
1.D	.	.	.	.	1f	.
*	*	*lig	*	*	*	*
.	.	1F	gnus	.	.	.
.	.	.	.	.	1d\	.
=47-	=47-	=47-	=47-	=47-	=47-	=47-
*custos:C	*	*	*	*	*	*
2GG/	gnus	1G	.	.	.	.
*lig	*	*	*	*	*lig	*
!LO:PB:g=original	!	!	!	!	!	!
1C	.	.	.	.	1e	.
*	*	*Xlig	*	*	*	*
.	.	0A	.	.	.	.
1AA/	.	.	.	.	1c\	.
*Xlig	*	*	*	*	*Xlig	*
=48-	=48-	=48-	=48-	=48-	=48-	=48-
.	.	.	.	.	.	.
1.D	.	.	.	.	1d	gnus
*	*	*lig	*	*	*	*
.	.	1D	de-	.	.	.
.	.	.	.	.	1f\	.
=49-	=49-	=49-	=49-	=49-	=49-	=49-
1D	.	1F	.	.	.	.
.	.	.	.	.	1d	.
*	*	*Xlig	*	*	*	*
*	*	*lig	*	*	*	*
1AA	de-	1E	.	.	.	.
.	.	.	.	.	2c/	de-
=50-	=50-	=50-	=50-	=50-	=50-	=50-
2A\	.	1D	.	.	1d	.
2B-\	.	.	.	.	.	.
*	*	*Xlig	*	*	*	*
*	*	*lig	*	*	*	*
2A\	.	1F	.	.	2c/	.
2AA/	.	.	.	.	1c\	.
=51-	=51-	=51-	=51-	=51-	=51-	=51-
1GG	i	1D	.	.	.	.
.	.	.	.	.	2B-/	.
*	*	*Xlig	*	*	*	*
*	*	*	*	*	*custos:c	*
1G	.	1C	-i	.	1c	-i
!	!	!	!	!	!LO:LB:g=original	!
=52-	=52-	=52-	=52-	=52-	=52-	=52-
2A\	.	1F	qui	.	2c/	.
2D/	.	.	.	.	1d	.
*	*	*custos:A	*	*	*	*
2G\	.	1G	tol-	.	.	.
2C/	qui	.	.	.	2e\	.
!	!	!LO:LB:g=original	!	!	!	!
=53-	=53-	=53-	=53-	=53-	=53-	=53-
2F\	.	1A	-lis	.	1f	qui
2D/	.	.	.	.	.	.
*	*	*	*	*	*lig	*
*custos:C	*	*	*	*	*	*
1G	tol-	1B-y	pec-	.	1d	.
!LO:LB:g=original	!	!	!	!	!	!
=54-	=54-	=54-	=54-	=54-	=54-	=54-
1C	lis	1c	-ca-	.	1e	.
*	*	*	*	*	*Xlig	*
2D/	pec-	1A	-ta	.	2.f\	tol-
2.F\	-ca-	.	.	.	.	.
.	.	.	.	.	4e\	.
=55-	=55-	=55-	=55-	=55-	=55-	=55-
*	*	*lig	*	*	*	*
.	.	1F	mun-	.	2f\	-lis
4E/	.	.	.	.	.	.
2.D/	-ta	.	.	.	1f	pec-
.	.	1D	.	.	.	.
4C/	.	.	.	.	.	.
2BB-/	.	.	.	.	1d\	-ca-
*	*	*Xlig	*	*	*	*
=56-	=56-	=56-	=56-	=56-	=56-	=56-
1AA	mun-	1E	.	.	.	.
.	.	.	.	.	2c/	-ta
1.BB-	.	0D	-di	.	1.d	mun-
=57-	=57-	=57-	=57-	=57-	=57-	=57-
.	.	.	.	.	.	.
2AA/	.	.	.	.	2c/	.
*	*	*	*	*	*custos:B	*
1GG	-di	0d	mi-	.	2B-/	.
!	!	!	!	!	!LO:PB:g=original	!
.	.	.	.	.	2.B-/	di
=58-	=58-	=58-	=58-	=58-	=58-	=58-
2G\	mi-	.	.	.	.	.
.	.	.	.	.	4c/	.
2G\	-ſe-	.	.	.	2d/	mi-
1C	.	0c	-ſe-	.	1e	-ſe-
=59-	=59-	=59-	=59-	=59-	=59-	=59-
2F/	-re-	.	.	.	2f\	.
*custos:D	*	*	*	*	*	*
2E/	.	.	.	.	2g\	.
*	*	*lig	*	*	*	*
!LO:LB:g=original	!	!	!	!	!	!
2D/	.	1A	-re-	.	2f\	.
1C/	.	.	.	.	1e\	.
=60-	=60-	=60-	=60-	=60-	=60-	=60-
.	.	1G	.	.	.	.
2BB-/	.	.	.	.	1d\	.
*	*	*Xlig	*	*	*	*
*	*	*lig	*	*	*	*
1AA	.	1A	.	.	.	.
.	.	.	.	.	2c/	.
=61-	=61-	=61-	=61-	=61-	=61-	=61-
1D	.	1F	.	.	2d/	.
.	.	.	.	.	2f\	.
*	*	*Xlig	*	*	*	*
2C/	.	1G	-re	.	2e\	.
2BB-/	.	.	.	.	2d/	.
=62-	=62-	=62-	=62-	=62-	=62-	=62-
*	*	*custos:D	*	*	*	*
0AA	-re	0A	.	.	2.c/	.
*	*	*	*	*	*custos:e	*
.	.	.	.	.	4d/	re
!	!	!	!	!	!LO:LB:g=original	!
.	.	.	.	.	2e\	.
.	.	.	.	.	1f\	no-
!	!	!LO:LB:g=original	!	!	!	!
=63-	=63-	=63-	=63-	=63-	=63-	=63-
*	*	*lig	*	*	*	*
0A	.	1D	no-	.	.	.
.	.	.	.	.	4e/	.
.	.	.	.	.	4d/	.
.	.	1F	.	.	2c/	.
.	.	.	.	.	2d/	.
*	*	*Xlig	*	*	*	*
=64-	=64-	=64-	=64-	=64-	=64-	=64-
1G	.	1E	.	.	1e	.
*	*	*lig	*	*	*	*
2F\	.	1D	.	.	1f	.
2.D/	.	.	.	.	.	.
=65-	=65-	=65-	=65-	=65-	=65-	=65-
.	.	1F	.	.	2d/	.
4C/	.	.	.	.	.	.
2D/	.	.	.	.	1f	.
*	*	*Xlig	*	*	*	*
*	*	*lig	*	*	*	*
1F	.	1D	.	.	.	.
.	.	.	.	.	4e/	.
.	.	.	.	.	4d/	.
=66-	=66-	=66-	=66-	=66-	=66-	=66-
*custos:F	*	*	*	*	*	*
1G	no-	1C	.	.	1e	.
*	*	*Xlig	*	*	*	*
*	*	*lig	*	*	*	*
!LO:LB:g=original	!	!	!	!	!	!
2F\	.	1F	.	.	1f	.
2D/	.	.	.	.	.	.
=67-	=67-	=67-	=67-	=67-	=67-	=67-
1C	.	1G	.	.	2r	.
.	.	.	.	.	1c	.
*	*	*Xlig	*	*	*	*
*	*	*lig	*	*	*	*
1F	.	1A	.	.	.	.
*	*	*	*	*	*custos:d	*
.	.	.	.	.	2f\	.
!	!	!	!	!	!LO:LB:g=original	!
=68-	=68-	=68-	=68-	=68-	=68-	=68-
1G	.	1B-	.	.	2d/	.
.	.	.	.	.	2g\	.
*	*	*Xlig	*	*	*	*
*	*	*lig	*	*	*	*
2.A\	.	1c	.	.	0e	.
4B-\	.	.	.	.	.	.
=69-	=69-	=69-	=69-	=69-	=69-	=69-
1c	.	1A	.	.	.	.
*	*	*Xlig	*	*	*	*
1A	.	1F	.	.	2f\	.
.	.	.	.	.	2c/	.
=70-	=70-	=70-	=70-	=70-	=70-	=70-
*	*	*lig	*	*	*	*
2F\	.	1D	.	.	2d/	.
2BB-/	.	.	.	.	1d	.
1AA	.	1E	.	.	.	.
.	.	.	.	.	2c/	.
*	*	*Xlig	*	*	*	*
=71-	=71-	=71-	=71-	=71-	=71-	=71-
*custos:D	*	*custos:D	*	*	*custos:d	*
0Dl;/	bis	0Dl;	bis	.	0dl;;	bis
==	==	==	==	==	==	==
*-	*-	*-	*-	*-	*-	*-
!!!system-decoration: [(*)]
!!!RDF**kern: l = terminal long
!!!ENC: Marta Opryszak
!!!END: 2022-01-21
!!!ENC: Andrzej Kubiczek
!!!END: 2022-01-28
